images/svg/git.svg

<svg width="29" height="28" viewBox="0 0 29 28" fill="none" xmlns="http://www.w3.org/2000/svg">
<path d="M28.109 14C28.109 21.4619 22.1387 27.5 14.7875 27.5C7.43624 27.5 1.46597 21.4619 1.46597 14C1.46597 6.53809 7.43624 0.5 14.7875 0.5C22.1387 0.5 28.109 6.53809 28.109 14Z" stroke="#D4D4D8"/>
<path fill-rule="evenodd" clip-rule="evenodd" d="M15.3856 7.22656C11.8405 7.22656 8.98837 10.1155 8.98837 13.7065C8.98837 16.5684 10.8276 18.9984 13.3598 19.8624C13.6797 19.9164 13.7863 19.7274 13.7863 19.5384C13.7863 19.3764 13.7863 18.9714 13.7863 18.4314C12.0004 18.8364 11.6272 17.5674 11.6272 17.5674C11.334 16.8114 10.9076 16.6224 10.9076 16.6224C10.3211 16.2174 10.9609 16.2174 10.9609 16.2174C11.6006 16.2714 11.9471 16.8924 11.9471 16.8924C12.5069 17.8914 13.4398 17.5944 13.813 17.4324C13.8663 17.0004 14.0262 16.7304 14.2128 16.5684C12.8001 16.4064 11.3074 15.8394 11.3074 13.3555C11.3074 12.6535 11.5473 12.0595 11.9738 11.6275C11.9205 11.4655 11.6806 10.8175 12.0271 9.89952C12.0271 9.89952 12.5602 9.73752 13.7863 10.5745C14.2928 10.4395 14.8525 10.3585 15.3856 10.3585C15.9188 10.3585 16.4785 10.4395 16.985 10.5745C18.2111 9.73752 18.7442 9.89952 18.7442 9.89952C19.0907 10.7905 18.8775 11.4385 18.7975 11.6275C19.1974 12.0865 19.4639 12.6535 19.4639 13.3555C19.4639 15.8394 17.9712 16.3794 16.5318 16.5414C16.7717 16.7304 16.9583 17.1354 16.9583 17.7294C16.9583 18.5934 16.9583 19.2954 16.9583 19.5114C16.9583 19.6734 17.0649 19.8894 17.4114 19.8354C19.9437 18.9984 21.7829 16.5684 21.7829 13.7065C21.7829 10.1155 18.9308 7.22656 15.3856 7.22656Z" fill="white"/>
</svg>

<svg xmlns="http://www.w3.org/2000/svg" width="29" height="28" fill="none"><path stroke="#D4D4D8" d="M28.109 14c0 7.462-5.97 13.5-13.322 13.5-7.35 0-13.321-6.038-13.321-13.5S7.436.5 14.788.5c7.35 0 13.321 6.038 13.321 13.5Z"/><path fill="#fff" fill-rule="evenodd" d="M15.386 7.227c-3.545 0-6.398 2.889-6.398 6.48a6.501 6.501 0 0 0 4.372 6.155c.32.054.426-.135.426-.324v-1.107c-1.786.405-2.159-.864-2.159-.864-.293-.756-.72-.945-.72-.945-.586-.405.054-.405.054-.405.64.054.986.675.986.675.56 1 1.493.702 1.866.54.053-.432.213-.702.4-.864-1.413-.162-2.906-.729-2.906-3.213 0-.702.24-1.296.667-1.728-.053-.162-.293-.81.053-1.727 0 0 .533-.162 1.76.675a6.346 6.346 0 0 1 1.599-.216c.533 0 1.093.08 1.599.216 1.226-.837 1.76-.675 1.76-.675.346.89.133 1.538.052 1.727.4.46.667 1.026.667 1.728 0 2.484-1.493 3.024-2.932 3.186.24.19.426.594.426 1.188v1.782c0 .162.107.378.453.324 2.533-.837 4.372-3.267 4.372-6.129 0-3.59-2.852-6.48-6.397-6.48Z" clip-rule="evenodd"/></svg>
